**kern
*staff1
!!pagebreak:original
*I"P1
*clefF4
*k[f#c#g#d#]
*M3/8
8GG#/
=1
[4.C#/
=2
8.C#\L]
16D#\L
16E\
16F#\JJ
=3
4G#\
8A\
=4
8B\L
16e\L
16d#\J
8e\J
=5
8A\L
16e\L
16d#\J
8e\J
=6
16G#\LL
16B\
16A\
16G#\J
8F#\J
=7
16E\LL
16G#\
16F#\
16E\J
8D#\J
=8
4.C#/
*-
